www/assets/icons/card_membership.svg

<svg xmlns="http://www.w3.org/2000/svg" width="24" height="24" viewBox="0 0 24 24" fill='currentColor'><path d="M20 2H4c-1.11 0-2 .89-2 2v11c0 1.11.89 2 2 2h4v5l4-2 4 2v-5h4c1.11 0 2-.89 2-2V4c0-1.11-.89-2-2-2m0 13H4v-2h16zm0-5H4V4h16z"/></svg>

<svg width="24" height="24" viewBox="0 0 24 24" xmlns="http://www.w3.org/2000/svg" fill='currentColor'><path d="M20 2H4C2.89 2 2 2.89 2 4V15C2 16.11 2.89 17 4 17H8V22L12 20L16 22V17H20C21.11 17 22 16.11 22 15V4C22 2.89 21.11 2 20 2ZM20 15H4V13H20V15ZM20 10H4V4H20V10Z"/></svg>
